static/assets/img/icons/theme/shopping/box-1.svg

<svg height="24" viewBox="0 0 24 24" width="24" xmlns="http://www.w3.org/2000/svg"><g fill="none" fill-rule="evenodd"><path d="m0 0h24v24h-24z" opacity="0"/><g fill="#000"><path d="m6 3h12l2 3.5h-16z" opacity=".3"/><path d="m6 5h12c1.1045695 0 2 .8954305 2 2v12c0 1.1045695-.8954305 2-2 2h-12c-1.1045695 0-2-.8954305-2-2v-12c0-1.1045695.8954305-2 2-2zm3 4c-.55228475 0-1 .44771525-1 1 0 .5522847.44771525 1 1 1h6c.5522847 0 1-.4477153 1-1 0-.55228475-.4477153-1-1-1z"/></g></g></svg>

<svg width="24px" height="24px" viewBox="0 0 24 24" version="1.1" xmlns="http://www.w3.org/2000/svg" xmlns:xlink="http://www.w3.org/1999/xlink">
    <title>Icon For Box#1</title>
    <g stroke="none" stroke-width="1" fill="none" fill-rule="evenodd">
        <rect opacity="0" x="0" y="0" width="24" height="24"></rect>
        <polygon fill="#000000" opacity="0.3" points="6 3 18 3 20 6.5 4 6.5"></polygon>
        <path d="M6,5 L18,5 C19.1045695,5 20,5.8954305 20,7 L20,19 C20,20.1045695 19.1045695,21 18,21 L6,21 C4.8954305,21 4,20.1045695 4,19 L4,7 C4,5.8954305 4.8954305,5 6,5 Z M9,9 C8.44771525,9 8,9.44771525 8,10 C8,10.5522847 8.44771525,11 9,11 L15,11 C15.5522847,11 16,10.5522847 16,10 C16,9.44771525 15.5522847,9 15,9 L9,9 Z" fill="#000000"></path>
    </g>
</svg>
